X:1
T:Weinland, 88.88.77.88
T:Weinland, 88.88.77.88
T:Edmund Simon Lorenz, 1887
T:Public Domain Courtesy of the Cyber Hymnal™
C:Edmund Simon Lorenz, 1887
Z:Public Domain
Z:Courtesy of the Cyber Hymnal™
%%score ( 1 2 ) ( 3 4 )
L:1/8
Q:1/4=110
M:4/4
K:Eb
V:1 treble 
V:2 treble 
V:3 bass 
V:4 bass 
V:1
 (EF) | [EG]2 [GB]2 [GB]2 [Ge]2 | [Ac]2 [ce]2 [GB]2 [EG]2 | [GB]4 [Ac][GB][EG]E | %4
 [EG]4 [DF]2 (EF) | [EG]2 [GB]2 [GB]2 [Ge]2 | [Ac]2 [ce]2 [GB]2 [EG]2 | [GB]4 [Ac][GB][EG]E | %8
 [DF]4 E2 z2 | [DF]4 [EG][DF][CE][DF] | [EG]4 [GB]4 | [Ac]4 A[Ac][Ae][Ec] | [EB]4 [EG]4 | %13
 [EB]2 [Ec]2 [EB]2 [EG]2 | [Ec]2 [Ac][Ad] !fermata![Ae]2 [Ac]2 | [GB]4 [Ac][GB][EG]E | [DF]4 E2 |] %17
V:2
 E2 | x8 | x8 | x7 E | x6 E2 | x8 | x8 | x7 E | x4 E2 x2 | x8 | x8 | x4 A x3 | x8 | x8 | x8 | %15
 x7 E | x4 E2 |] %17
V:3
 z2 | E,8 | [A,,A,]4 [E,G,]2 [E,B,]2 | [E,E]4 [E,E][E,E][E,B,][E,G,] | [B,,B,]4 [B,,B,]2 z2 | E,8 | %6
 [A,,A,]4 [E,G,]2 [E,B,]2 | [E,E]4 [E,E][E,E][E,B,][E,G,] | [B,,A,]4 [E,G,]2 z2 | %9
 [B,,B,]4 [B,,B,][B,,B,][B,,B,][B,,B,] | [E,B,]4 [E,E]4 | [A,E]4 [A,C][A,E][A,C]A, | %12
 [E,G,]4 [E,B,]4 | [E,G,]2 [E,A,]2 [E,G,]2 [E,B,]2 | A,2 [A,E][A,D] !fermata![A,C]2 [A,E]2 | %15
 [E,E]4 [E,E][E,E][E,B,][E,G,] | [B,,A,]4 [E,G,]2 |] %17
V:4
 x2 | x8 | x8 | x8 | x8 | x8 | x8 | x8 | x8 | x8 | x8 | x7 A, | x8 | x8 | A,2 x6 | x8 | x6 |] %17

